images/Group-1.svg

<svg width="55" height="61" viewBox="0 0 55 61" fill="none" xmlns="http://www.w3.org/2000/svg">
<path d="M54.0635 25.9738C53.4347 25.1256 52.5119 24.5797 51.4642 24.4326C50.4118 24.2833 49.3734 24.5597 48.5334 25.2026L45.7952 27.3014L45.794 27.3026L41.6428 30.4025L38.6724 29.2195C43.9691 26.843 47.6711 21.545 47.6711 15.3942C47.6711 7.03144 40.8401 0.227386 32.4436 0.227386C24.047 0.227386 17.2161 7.03144 17.2161 15.3942C17.2161 18.4253 18.1226 21.244 19.6662 23.6158L13.6204 23.5633C13.6168 23.5633 13.6134 23.5633 13.6099 23.5633C13.5911 23.5633 13.5761 23.5726 13.5586 23.5738C13.4431 23.5785 13.3298 23.6019 13.2191 23.6415C13.1911 23.652 13.162 23.6579 13.1352 23.6706C13.1212 23.6765 13.1071 23.6776 13.0932 23.6846L6.02075 27.1764C6.01952 27.1764 6.01843 27.1764 6.01843 27.1775L1.8766 29.1693C1.83107 29.1891 1.78445 29.2159 1.73892 29.2463C0.0880191 30.3452 -0.474314 32.5036 0.429958 34.2676C0.911763 35.2056 1.73195 35.8964 2.73999 36.2125C3.12856 36.3337 3.52518 36.3933 3.91949 36.3933C4.55305 36.3933 5.18074 36.2382 5.75578 35.9314L8.79154 34.3167L13.7441 31.7593L16.7122 31.7418L4.80844 43.5884C4.80735 43.5896 4.80612 43.5896 4.80489 43.5907L1.87647 46.5074C1.18466 47.1958 0.8043 48.1092 0.8043 49.0835C0.8043 50.0565 1.18466 50.9723 1.87647 51.6619C2.587 52.3689 3.52149 52.7236 4.45598 52.7236C5.3917 52.7236 6.32495 52.3689 7.03782 51.6619L9.91251 48.7988L13.7206 45.9556L15.6912 47.9179L11.8375 51.7552C11.8364 51.7564 11.8352 51.7564 11.834 51.7575L8.90556 54.6741C8.21375 55.3625 7.8334 56.276 7.8334 57.2502C7.8334 58.2233 8.21375 59.139 8.90556 59.8287C9.6161 60.5356 10.5518 60.8903 11.4863 60.8903C12.4208 60.8903 13.3565 60.5356 14.0681 59.8287L16.9977 56.912L21.6842 52.2453C21.6854 52.2441 21.6854 52.243 21.6865 52.2417L23.8951 50.0542L23.8869 50.046C23.9008 50.0321 23.9207 50.0273 23.9347 50.0122L35.2353 37.6349L42.8281 38.7153C42.8829 38.7235 42.9377 38.7269 42.9925 38.7269C43.1338 38.7269 43.2702 38.6931 43.402 38.6429C43.4406 38.629 43.4743 38.6103 43.5106 38.5917C43.5526 38.5706 43.5968 38.559 43.6366 38.5322L50.6659 33.8655C50.6916 33.848 50.7055 33.82 50.73 33.8014C50.758 33.7792 50.793 33.7699 50.8186 33.7453L53.5999 31.1401C55.0471 29.7841 55.2466 27.5628 54.0635 25.9738ZM4.66024 33.8722C4.28111 34.0752 3.85058 34.116 3.43878 33.9854C3.03039 33.8583 2.69912 33.5793 2.50538 33.2025C2.15305 32.5165 2.35718 31.6811 2.97433 31.2297L5.84793 29.8471L6.53974 31.869L6.83027 32.7183L4.66024 33.8722ZM12.3102 29.8741L8.92333 31.6241L8.36456 29.9907L7.96328 28.817L12.3967 26.6282L12.3102 29.8741ZM45.3402 15.3919C45.3402 17.4009 44.8607 19.2957 44.03 20.9908L34.8832 16.8362C34.7875 15.5821 34.1366 14.4842 33.1589 13.8005L36.3614 3.16853C41.5626 4.82298 45.3402 9.67521 45.3402 15.3919ZM19.5519 15.3919C19.5519 8.31593 25.3363 2.55834 32.446 2.55834C32.9991 2.55834 33.5403 2.60496 34.0759 2.67264L30.9433 13.0714C30.9014 13.0701 30.8617 13.0585 30.8185 13.0585C28.5597 13.0585 26.7222 14.8902 26.7222 17.1419C26.7222 19.3936 28.5597 21.2254 30.8185 21.2254C32.3375 21.2254 33.65 20.3866 34.3582 19.1591L42.8073 22.9976C40.4564 26.1616 36.6938 28.2255 32.4459 28.2255C25.3363 28.2255 19.5519 22.4679 19.5519 15.3919ZM32.5814 17.1419C32.5814 18.1068 31.7903 18.892 30.8185 18.892C29.8467 18.892 29.0556 18.1068 29.0556 17.1419C29.0556 16.1771 29.8467 15.3919 30.8185 15.3919C31.7903 15.3919 32.5814 16.1771 32.5814 17.1419ZM5.39183 50.0075C4.87503 50.5196 4.03843 50.5185 3.52286 50.0087C3.2743 49.7601 3.13785 49.4324 3.13785 49.0835C3.13785 48.7358 3.2743 48.408 3.52286 48.1619L5.6274 46.0652L7.48941 47.9192L5.39183 50.0075ZM12.4222 58.1743C11.9054 58.6865 11.0677 58.6877 10.552 58.1756C10.3034 57.927 10.1669 57.5993 10.1669 57.2504C10.1669 56.9027 10.3034 56.5748 10.552 56.3287L12.6579 54.231L13.5388 55.1073L14.5211 56.085L12.4222 58.1743ZM20.0383 50.5862C20.0371 50.5873 20.036 50.5873 20.0348 50.5885L16.1742 54.4386L15.2933 53.5623L14.311 52.5846L18.168 48.7451C18.168 48.7451 18.168 48.7451 18.168 48.744C18.1692 48.7428 18.1703 48.7428 18.1715 48.7417C18.259 48.6542 18.3139 48.5492 18.3676 48.4454C18.3828 48.4151 18.4119 48.3894 18.4248 48.3579C18.461 48.2681 18.4667 48.1713 18.4808 48.0767C18.4878 48.0229 18.5112 47.9729 18.5112 47.9179C18.5112 47.8397 18.4831 47.764 18.4669 47.6869C18.4529 47.6169 18.4529 47.5457 18.426 47.4781C18.3817 47.3685 18.3058 47.2717 18.2265 47.1771C18.2044 47.1514 18.1962 47.1187 18.1717 47.0942C18.1717 47.0942 18.1717 47.0942 18.1705 47.0942C18.1692 47.0931 18.1692 47.0906 18.1681 47.0896L14.6529 43.5895C14.6156 43.5522 14.5677 43.537 14.5257 43.5056C14.464 43.4577 14.4045 43.4134 14.3356 43.3795C14.2691 43.3468 14.2014 43.327 14.1314 43.3083C14.0568 43.2872 13.9845 43.2709 13.9063 43.2651C13.835 43.2604 13.7686 43.2674 13.6975 43.2756C13.6193 43.2849 13.5459 43.2954 13.47 43.3199C13.3964 43.3433 13.3312 43.3794 13.2635 43.4179C13.2203 43.4424 13.1714 43.4506 13.1305 43.4809L9.25133 46.3767L7.28077 44.4143L12.5285 39.1946L22.0674 48.576L20.0383 50.5862ZM34.9544 35.2372C34.9207 35.2326 34.8891 35.2454 34.8553 35.2431C34.7701 35.2385 34.6885 35.2443 34.6034 35.2583C34.5369 35.2699 34.4739 35.2828 34.4108 35.3049C34.3362 35.3306 34.2685 35.3656 34.1996 35.4076C34.1343 35.4472 34.0748 35.4892 34.0176 35.5417C33.9896 35.5662 33.9558 35.5779 33.9301 35.6058L23.6527 46.8621L14.185 37.5507L20.3825 31.3859C20.8387 30.9309 20.841 30.1924 20.386 29.735C20.1562 29.5052 19.854 29.392 19.5519 29.3932V29.3921L14.6984 29.4213L14.7591 25.9049L21.5492 25.9633C24.3166 28.7937 28.176 30.5589 32.446 30.5589C33.4027 30.5589 34.3361 30.4598 35.2448 30.2905C35.3323 30.3605 35.4186 30.4318 35.5284 30.4761L40.7995 32.5761L41.1331 34.2351L41.5228 36.1717L34.9544 35.2372ZM43.7944 35.6269L43.1096 32.219L46.2736 29.8564L47.102 30.9554L48.3445 32.6051L43.7944 35.6269ZM52.0055 29.4341L50.1726 31.1515L48.1356 28.4471L49.9544 27.053C50.2938 26.7917 50.7221 26.6855 51.1421 26.7403C51.5644 26.7998 51.9378 27.0203 52.1921 27.3621C52.6658 28.0003 52.5853 28.8905 52.0055 29.4341Z" fill="#212121"/>
</svg>

<svg width="55" height="61" fill="none" xmlns="http://www.w3.org/2000/svg"><path d="M54.063 25.974a3.88 3.88 0 00-2.599-1.541 3.886 3.886 0 00-2.93.77L45.794 27.3l-.001.002-4.151 3.1-2.97-1.183c5.296-2.377 8.998-7.675 8.998-13.826 0-8.363-6.83-15.167-15.227-15.167S17.216 7.031 17.216 15.394c0 3.031.907 5.85 2.45 8.222l-6.046-.053h-.01c-.019 0-.034.01-.051.01a1.143 1.143 0 00-.34.069c-.028.01-.057.016-.084.029-.014.006-.028.007-.042.014l-7.072 3.491c-.001 0-.003 0-.003.002l-4.141 1.991a.898.898 0 00-.138.077A3.895 3.895 0 00.43 34.268a3.884 3.884 0 002.31 1.944 3.891 3.891 0 003.016-.281l3.036-1.614 4.952-2.558 2.968-.017L4.808 43.588c0 .002-.002.002-.003.003l-2.929 2.916a3.607 3.607 0 00-1.072 2.577c0 .972.38 1.888 1.072 2.578a3.647 3.647 0 002.58 1.062c.936 0 1.869-.355 2.582-1.062l2.875-2.863 3.808-2.843 1.97 1.962-3.854 3.837-.003.002-2.928 2.917a3.608 3.608 0 00-1.073 2.576c0 .973.38 1.889 1.073 2.579a3.65 3.65 0 002.58 1.061c.935 0 1.87-.354 2.582-1.061l2.93-2.917 4.686-4.667.002-.003 2.21-2.188-.01-.008c.015-.014.035-.019.049-.034l11.3-12.377 7.593 1.08c.055.008.11.012.164.012.142 0 .278-.034.41-.084.039-.014.072-.033.109-.051.042-.021.086-.033.126-.06l7.029-4.666c.026-.018.04-.046.064-.065.028-.022.063-.031.089-.056l2.78-2.605a3.892 3.892 0 00.465-5.166zM4.66 33.872a1.56 1.56 0 01-1.221.113 1.564 1.564 0 01-.465-2.755l2.874-1.383.692 2.022.29.85-2.17 1.153zm7.65-3.998l-3.387 1.75-.558-1.633-.402-1.174 4.434-2.189-.087 3.246zm33.03-14.482c0 2.009-.48 3.904-1.31 5.599l-9.147-4.155a4.07 4.07 0 00-1.724-3.035L36.36 3.168c5.202 1.654 8.98 6.506 8.98 12.223zm-25.788 0c0-7.076 5.784-12.834 12.894-12.834.553 0 1.094.047 1.63.115L30.943 13.07c-.042 0-.081-.012-.125-.012a4.094 4.094 0 00-4.096 4.083 4.094 4.094 0 004.096 4.083c1.52 0 2.832-.838 3.54-2.066l8.45 3.839c-2.352 3.164-6.114 5.227-10.362 5.227-7.11 0-12.894-5.757-12.894-12.833zm13.03 1.75c0 .965-.792 1.75-1.764 1.75a1.759 1.759 0 01-1.762-1.75c0-.965.79-1.75 1.762-1.75s1.763.785 1.763 1.75zM5.391 50.007a1.331 1.331 0 01-1.87.002 1.3 1.3 0 010-1.847l2.105-2.097L7.49 47.92l-2.097 2.089zm7.03 8.167a1.33 1.33 0 01-1.87.002 1.3 1.3 0 010-1.847l2.106-2.098.88.876.983.978-2.099 2.09zm7.616-7.588l-.003.003-3.86 3.85-.882-.877-.982-.977 3.857-3.84v-.001l.004-.002c.087-.088.142-.193.196-.297.015-.03.044-.056.057-.087.036-.09.042-.187.056-.281.007-.054.03-.104.03-.16 0-.077-.028-.153-.044-.23-.014-.07-.014-.141-.041-.209a1.167 1.167 0 00-.2-.3c-.022-.027-.03-.06-.054-.084h-.002s0-.003-.002-.004l-3.515-3.5c-.037-.038-.085-.053-.127-.084a1.112 1.112 0 00-.19-.127 1.087 1.087 0 00-.205-.07 1.118 1.118 0 00-.225-.044 1.132 1.132 0 00-.209.01c-.078.01-.151.02-.227.045a1.08 1.08 0 00-.207.098c-.043.024-.092.033-.133.063l-3.879 2.896-1.97-1.963 5.247-5.22 9.54 9.382-2.03 2.01zm14.916-15.349c-.033-.004-.065.008-.099.006a1.146 1.146 0 00-.252.015 1.075 1.075 0 00-.404.15c-.065.04-.124.081-.181.134-.028.024-.062.036-.088.064L23.653 46.862l-9.468-9.311 6.197-6.165a1.168 1.168 0 00-.83-1.993l-4.854.028.061-3.516 6.79.058a15.2 15.2 0 0010.897 4.596c.957 0 1.89-.1 2.799-.268.087.07.174.14.283.185l5.272 2.1.333 1.66.39 1.936-6.569-.935zm8.84.39l-.684-3.408 3.164-2.363.828 1.1 1.242 1.65-4.55 3.02zm8.212-6.193l-1.833 1.717-2.037-2.704 1.818-1.394c.34-.261.768-.367 1.188-.313.422.06.796.28 1.05.622a1.562 1.562 0 01-.187 2.072z" fill="#212121"/></svg>
